SVG-Logos/AI, ML, DS/AI/assembly-ai-wordmark.svg

<svg xmlns="http://www.w3.org/2000/svg" width="172" height="32" viewBox="0 0 172 32" fill="none">
  <g clip-path="url(#clip0_445_12947)">
    <path d="M46.3784 22.7027C46.2703 22.7027 46.1082 22.6487 46.0001 22.5406C45.8919 22.4325 45.8379 22.3244 45.8379 22.1622C45.8379 22.0541 45.8379 22 45.8379 21.946L51.4595 6.59463C51.5136 6.37842 51.6217 6.27031 51.7838 6.10815C51.946 5.94599 52.1622 5.89193 52.4325 5.89193H56C56.2703 5.89193 56.4865 5.94599 56.6487 6.10815C56.8109 6.21626 56.919 6.37842 56.973 6.59463L62.5946 21.946L62.6487 22.1622C62.6487 22.2703 62.5946 22.4325 62.4865 22.5406C62.3784 22.6487 62.2703 22.7027 62.1082 22.7027H59.1352C58.7568 22.7027 58.4865 22.5406 58.3784 22.2163L57.4595 19.7838H51.0271L50.1082 22.2163C50 22.5406 49.7298 22.7027 49.2973 22.7027H46.3784ZM56.4865 16.3244L54.2703 10L52.0541 16.3244H56.4865Z" fill="#09032F"/>
    <path d="M68 22.973C66.7028 22.973 65.6217 22.8108 64.7568 22.4325C63.8919 22.0541 63.2433 21.6217 62.8649 21.1352C62.4325 20.6487 62.2163 20.1622 62.2163 19.7838C62.2163 19.6217 62.2703 19.5136 62.3784 19.4054C62.4865 19.2973 62.6487 19.2433 62.8109 19.2433H65.5676C65.6757 19.2433 65.7298 19.2973 65.8379 19.3514C66.0541 19.4595 66.1622 19.5676 66.2703 19.6757C66.5946 19.946 66.919 20.1081 67.1892 20.2703C67.4595 20.3784 67.7838 20.4325 68.1622 20.4325C68.6487 20.4325 69.0271 20.3244 69.2973 20.1622C69.6217 19.946 69.7298 19.7298 69.7298 19.3514C69.7298 19.0811 69.6757 18.8649 69.5136 18.7027C69.3514 18.5406 69.0811 18.3784 68.6487 18.2703C68.2163 18.1081 67.5676 17.946 66.7028 17.7838C65.3514 17.5136 64.3784 17.0811 63.6217 16.4865C62.919 15.8379 62.5946 15.0271 62.5946 14C62.5946 13.3514 62.8109 12.7027 63.2433 12.1081C63.6757 11.5136 64.2703 11.0271 65.0811 10.6487C65.8919 10.2703 66.919 10.1081 68 10.1081C69.1352 10.1081 70.1082 10.2703 70.973 10.6487C71.8379 10.973 72.4325 11.4054 72.8649 11.946C73.2973 12.4325 73.5136 12.919 73.5136 13.2973C73.5136 13.4595 73.4595 13.5676 73.3514 13.6757C73.2433 13.7838 73.1352 13.8379 72.973 13.8379H70.4865C70.3784 13.8379 70.2163 13.7838 70.1082 13.7298C69.8919 13.6217 69.7298 13.5136 69.5676 13.3514C69.2973 13.1352 69.0271 12.973 68.8109 12.8649C68.5946 12.7568 68.2703 12.7027 67.946 12.7027C67.5136 12.7027 67.1892 12.8108 66.919 12.973C66.7028 13.1892 66.5406 13.4054 66.5406 13.7298C66.5406 13.946 66.5946 14.1622 66.7568 14.3244C66.919 14.4865 67.1892 14.6487 67.6217 14.8109C68.0541 14.973 68.7028 15.0811 69.5676 15.2433C71.1352 15.5136 72.2163 16 72.919 16.7027C73.6217 17.4054 74.0001 18.2163 74.0001 19.1352C74.0001 20.3244 73.4595 21.2433 72.4325 22C71.3514 22.5946 69.8919 22.973 68 22.973Z" fill="#09032F"/>
    <path d="M79.946 22.973C78.6487 22.973 77.5676 22.8108 76.7028 22.4325C75.8379 22.0541 75.1892 21.6217 74.8109 21.1352C74.3784 20.6487 74.1622 20.1622 74.1622 19.7838C74.1622 19.6217 74.2163 19.5136 74.3244 19.4054C74.4325 19.2973 74.5946 19.2433 74.7568 19.2433H77.5136C77.6217 19.2433 77.6757 19.2973 77.7838 19.3514C78 19.4595 78.1082 19.5676 78.2163 19.6757C78.5406 19.946 78.8649 20.1081 79.1352 20.2703C79.4055 20.3784 79.7298 20.4325 80.1081 20.4325C80.5946 20.4325 80.973 20.3244 81.2433 20.1622C81.5676 19.946 81.6757 19.7298 81.6757 19.3514C81.6757 19.0811 81.6217 18.8649 81.4595 18.7027C81.2973 18.5406 81.0271 18.3784 80.5946 18.2703C80.1622 18.1081 79.5136 17.946 78.6487 17.7838C77.2973 17.5136 76.3244 17.0811 75.5676 16.4865C74.8649 15.8379 74.5406 15.0271 74.5406 14C74.5406 13.3514 74.7568 12.7027 75.1892 12.1081C75.6217 11.5136 76.2163 11.0271 77.0271 10.6487C77.8379 10.2703 78.8649 10.1081 79.946 10.1081C81.0811 10.1081 82.0541 10.2703 82.919 10.6487C83.7838 10.973 84.3784 11.4054 84.8109 11.946C85.2433 12.4325 85.4595 12.919 85.4595 13.2973C85.4595 13.4595 85.4054 13.5676 85.2973 13.6757C85.1892 13.7838 85.0811 13.8379 84.919 13.8379H82.4325C82.3244 13.8379 82.1622 13.7838 82.0541 13.7298C81.8379 13.6217 81.6757 13.5136 81.5136 13.3514C81.2433 13.1352 80.973 12.973 80.7568 12.8649C80.5406 12.7568 80.2163 12.7027 79.8919 12.7027C79.4595 12.7027 79.1352 12.8108 78.8649 12.973C78.6487 13.1892 78.4865 13.4054 78.4865 13.7298C78.4865 13.946 78.5406 14.1622 78.7028 14.3244C78.8649 14.4865 79.1352 14.6487 79.5676 14.8109C80 14.973 80.6487 15.0811 81.5136 15.2433C83.0811 15.5136 84.1622 16 84.8649 16.7027C85.5676 17.4054 85.946 18.2163 85.946 19.1352C85.946 20.3244 85.4054 21.2433 84.3784 22C83.2973 22.5946 81.8379 22.973 79.946 22.973Z" fill="#09032F"/>
    <path d="M92.4865 22.973C90.5946 22.973 89.0811 22.4325 87.946 21.4054C86.8649 20.3784 86.2703 18.8649 86.2163 16.8649V16C86.2703 14.1081 86.8649 12.6487 87.946 11.5676C89.0811 10.4865 90.5406 9.94599 92.4325 9.94599C93.7838 9.94599 94.919 10.2163 95.8379 10.8109C96.7568 11.3514 97.4595 12.1081 97.946 13.0811C98.4325 14.0541 98.6487 15.1352 98.6487 16.3784V16.973C98.6487 17.1352 98.5946 17.2973 98.4865 17.4054C98.3784 17.5136 98.2163 17.5676 98.0541 17.5676H90.3784V17.7298C90.4325 18.4865 90.5946 19.0811 90.919 19.5676C91.2433 20.0541 91.7298 20.2703 92.3784 20.2703C92.7568 20.2703 93.0811 20.2163 93.3514 20.0541C93.6217 19.8919 93.8379 19.6757 94.0541 19.4054C94.2163 19.2433 94.3244 19.1352 94.3784 19.0811C94.4865 19.0271 94.5946 19.0271 94.8109 19.0271H97.7838C97.946 19.0271 98.0541 19.0811 98.1622 19.1892C98.2703 19.2433 98.3244 19.4054 98.3244 19.5136C98.3244 19.946 98.1082 20.4325 97.6217 20.973C97.1352 21.5136 96.4865 22 95.5676 22.3784C94.7027 22.7568 93.6757 22.973 92.4865 22.973ZM94.4865 15.1892C94.4865 14.3784 94.3244 13.7298 93.946 13.2973C93.6217 12.8109 93.0811 12.5946 92.4865 12.5946C91.8379 12.5946 91.3514 12.8109 91.0271 13.2973C90.7028 13.7298 90.4865 14.3784 90.4865 15.1352V15.1892H94.4865Z" fill="#09032F"/>
    <path d="M100.216 22.7027C100.054 22.7027 99.8919 22.6487 99.7838 22.5406C99.6757 22.4325 99.6217 22.2703 99.6217 22.1081V10.8649C99.6217 10.7027 99.6757 10.5406 99.7838 10.4325C99.8919 10.3244 100.054 10.2703 100.216 10.2703H102.811C102.973 10.2703 103.135 10.3244 103.243 10.4325C103.351 10.5406 103.405 10.7027 103.405 10.8649V11.6757C103.784 11.1892 104.27 10.8108 104.865 10.4865C105.514 10.1622 106.162 10 106.973 10C108.703 10 109.946 10.7027 110.595 12.0541C110.973 11.4595 111.514 10.973 112.216 10.5946C112.919 10.2163 113.622 10 114.432 10C115.73 10 116.811 10.4325 117.622 11.3514C118.432 12.2163 118.865 13.5676 118.865 15.2973V22.1081C118.865 22.2703 118.811 22.4325 118.703 22.5406C118.595 22.6487 118.432 22.7027 118.27 22.7027H115.514C115.351 22.7027 115.189 22.6487 115.081 22.5406C114.973 22.4325 114.919 22.2703 114.919 22.1081V15.4595C114.919 14.6487 114.757 14.1081 114.432 13.7298C114.108 13.4054 113.676 13.1892 113.135 13.1892C112.649 13.1892 112.216 13.3514 111.892 13.7298C111.568 14.0541 111.405 14.6487 111.405 15.4054V22.0541C111.405 22.2163 111.351 22.3784 111.243 22.4865C111.135 22.5946 110.973 22.6487 110.811 22.6487H108.054C107.892 22.6487 107.73 22.5946 107.622 22.4865C107.514 22.3784 107.46 22.2163 107.46 22.0541V15.4595C107.46 14.7027 107.297 14.1081 106.919 13.7838C106.595 13.4054 106.162 13.2433 105.622 13.2433C105.135 13.2433 104.703 13.4054 104.324 13.7838C104 14.1081 103.838 14.7027 103.838 15.4595V22.1081C103.838 22.2703 103.784 22.4325 103.676 22.5406C103.568 22.6487 103.405 22.7027 103.243 22.7027H100.216Z" fill="#09032F"/>
    <path d="M127.838 22.973C126.216 22.973 125.027 22.4325 124.108 21.3514V22.1081C124.108 22.2703 124.054 22.4325 123.946 22.5406C123.838 22.6487 123.676 22.7027 123.514 22.7027H120.811C120.649 22.7027 120.487 22.6487 120.378 22.5406C120.27 22.4325 120.216 22.2703 120.216 22.1081V6.32436C120.216 6.1622 120.27 6.00004 120.378 5.89193C120.487 5.78382 120.649 5.72977 120.811 5.72977H123.73C123.892 5.72977 124.054 5.78382 124.162 5.89193C124.27 6.00004 124.324 6.1622 124.324 6.32436V11.4595C125.243 10.5406 126.378 10.0541 127.838 10.0541C129.405 10.0541 130.595 10.5406 131.514 11.5676C132.432 12.5946 132.865 13.946 132.973 15.6757C132.973 15.8919 132.973 16.1622 132.973 16.5406C132.973 16.8649 132.973 17.1892 132.973 17.4054C132.919 19.1892 132.432 20.5946 131.514 21.5676C130.595 22.4865 129.405 22.973 127.838 22.973ZM126.541 19.7298C127.297 19.7298 127.838 19.5136 128.162 19.0811C128.487 18.6487 128.703 18 128.757 17.2433C128.811 16.919 128.811 16.7027 128.811 16.4865C128.811 16.3244 128.811 16.0541 128.757 15.7298C128.703 14.973 128.541 14.3244 128.162 13.8919C127.838 13.4595 127.297 13.2433 126.541 13.2433C125.838 13.2433 125.297 13.4595 124.919 13.8919C124.541 14.3244 124.378 14.8649 124.324 15.5136V17.2973C124.378 18 124.541 18.5946 124.919 19.0811C125.243 19.5136 125.784 19.7298 126.541 19.7298Z" fill="#09032F"/>
    <path d="M134.595 22.7027C134.432 22.7027 134.27 22.6487 134.162 22.5406C134.054 22.4325 134 22.2703 134 22.1081V6.32436C134 6.1622 134.054 6.00004 134.162 5.89193C134.27 5.78382 134.432 5.72977 134.595 5.72977H137.405C137.568 5.72977 137.73 5.78382 137.838 5.89193C137.946 6.00004 138 6.1622 138 6.32436V22.1081C138 22.2703 137.946 22.4325 137.838 22.5406C137.73 22.6487 137.568 22.7027 137.405 22.7027H134.595Z" fill="#09032F"/>
    <path d="M141.838 27.2433C141.676 27.2433 141.568 27.1892 141.459 27.0811C141.351 26.973 141.297 26.8649 141.297 26.7027C141.297 26.5946 141.297 26.4865 141.351 26.3784L143.243 21.8919L138.649 11.0271C138.595 10.919 138.595 10.8109 138.595 10.7568C138.649 10.5946 138.703 10.4865 138.811 10.3784C138.919 10.2703 139.027 10.2163 139.189 10.2163H141.946C142.27 10.2163 142.487 10.3784 142.649 10.7027L145.405 17.6757L148.216 10.7027C148.378 10.3784 148.595 10.2163 148.919 10.2163H151.622C151.784 10.2163 151.892 10.2703 152 10.3784C152.108 10.4865 152.162 10.5946 152.162 10.7027C152.162 10.7568 152.162 10.8649 152.108 11.0271L145.351 26.7027C145.243 27.0271 144.973 27.1892 144.649 27.1892H141.838V27.2433Z" fill="#09032F"/>
    <path d="M150.811 22.7027C150.703 22.7027 150.541 22.6487 150.432 22.5406C150.324 22.4325 150.27 22.3244 150.27 22.1622C150.27 22.0541 150.27 22 150.27 21.946L155.892 6.59463C155.946 6.37842 156.054 6.27031 156.216 6.10815C156.378 6.00004 156.595 5.89193 156.865 5.89193H160.432C160.703 5.89193 160.919 5.94599 161.081 6.10815C161.243 6.27031 161.351 6.37842 161.405 6.59463L167.027 21.946L167.081 22.1622C167.081 22.2703 167.027 22.4325 166.919 22.5406C166.811 22.6487 166.703 22.7027 166.541 22.7027H163.568C163.189 22.7027 162.919 22.5406 162.811 22.2163L161.892 19.7838H155.514L154.595 22.2163C154.487 22.5406 154.216 22.7027 153.784 22.7027H150.811ZM160.919 16.3244L158.703 10L156.487 16.3244H160.919Z" fill="#09032F"/>
    <path d="M168.162 22.7027C168 22.7027 167.838 22.6487 167.73 22.5406C167.622 22.4325 167.568 22.2703 167.568 22.1081V6.54058C167.568 6.37842 167.622 6.21626 167.73 6.10815C167.838 6.00004 168 5.94599 168.162 5.94599H171.351C171.514 5.94599 171.676 6.00004 171.784 6.10815C171.892 6.21626 172 6.37842 172 6.54058V22.1081C172 22.2703 171.946 22.4325 171.784 22.5406C171.676 22.6487 171.514 22.7027 171.351 22.7027H168.162Z" fill="#09032F"/>
    <path d="M3.67577 20.5406L0.973067 26.973C0.21631 28.7568 0.0541484 30.8109 2.00009 31.5676C2.48658 31.7298 2.91901 31.8379 3.4055 31.8379C4.86496 31.8379 6.32442 30.973 6.86496 29.6217L7.4055 28.3244L11.6217 18.3784L15.8379 8.48653C16.865 6.7568 17.4596 4.05409 21.4055 2.59463C18.3244 2.1622 12.1623 1.35139 12.1082 1.35139C12.0541 1.40545 11.6758 2.05409 11.6217 2.10815C11.5136 2.27031 11.4596 2.37842 11.4055 2.54058L3.67577 20.5406C3.72982 20.4865 3.67577 20.4865 3.67577 20.5406Z" fill="url(#paint0_radial_445_12947)"/>
    <path d="M31.0812 20.5406L33.8379 26.973C34.5947 28.7568 34.7568 30.8109 32.8109 31.5676C32.3244 31.7298 31.892 31.8379 31.4055 31.8379C29.946 31.8379 28.4866 30.973 27.946 29.6217L27.4055 28.3244L23.1352 18.3784L18.919 8.48653C17.892 6.7568 16.2163 3.08112 11.7298 1.94599C12.3244 0.594634 14.2704 0.378418 15.7839 0.378418H20.0001C20.1623 0.378418 20.3244 0.378418 20.4866 0.432472C20.5947 0.432472 20.6487 0.432472 20.7568 0.486526C20.865 0.486526 20.9731 0.54058 21.0812 0.594634C21.1893 0.648688 21.3514 0.648688 21.4595 0.702742C21.5136 0.702742 21.5677 0.756796 21.6217 0.756796C21.7839 0.81085 21.946 0.918958 22.1082 0.973013C22.2163 1.02707 22.3244 1.13517 22.3785 1.18923C22.4866 1.24328 22.5406 1.29734 22.6487 1.40544C22.7028 1.4595 22.8109 1.56761 22.865 1.62166C22.9731 1.72977 23.0271 1.78382 23.1352 1.89193C23.1893 1.94599 23.1893 2.05409 23.2433 2.10815C23.3514 2.27031 23.4055 2.37842 23.4595 2.54058L31.0812 20.5406C31.0812 20.4865 31.0812 20.4865 31.0812 20.5406Z" fill="url(#paint1_radial_445_12947)"/>
  </g>
  <defs>
    <radialGradient id="paint0_radial_445_12947" cx="0" cy="0" r="1" gradientUnits="userSpaceOnUse" gradientTransform="translate(106.721 3.8684) rotate(163.002) scale(96.729 52.3714)">
      <stop stop-color="#142167"/>
      <stop offset="1" stop-color="#263DB5"/>
    </radialGradient>
    <radialGradient id="paint1_radial_445_12947" cx="0" cy="0" r="1" gradientUnits="userSpaceOnUse" gradientTransform="translate(32.1401 7.2583) rotate(132.41) scale(27.514 96.2674)">
      <stop stop-color="#4259D4"/>
      <stop offset="1" stop-color="#6A81FC"/>
    </radialGradient>
    <clipPath id="clip0_445_12947">
      <rect width="171.568" height="32" fill="white" transform="translate(0.432617)"/>
    </clipPath>
  </defs>
</svg>

<svg xmlns="http://www.w3.org/2000/svg" fill="none" viewBox="0 0 172 32"><g clip-path="url(#a)"><path fill="#09032F" d="M46.378 22.703A.584.584 0 0 1 46 22.54a.49.49 0 0 1-.162-.379v-.216l5.621-15.351c.055-.217.163-.325.325-.487.162-.162.378-.216.648-.216H56c.27 0 .486.054.649.216.162.108.27.27.324.487l5.622 15.351.054.216c0 .108-.054.27-.163.379a.49.49 0 0 1-.378.162h-2.973c-.378 0-.648-.162-.757-.487l-.919-2.432h-6.432l-.919 2.432c-.108.325-.378.487-.81.487h-2.92Zm10.108-6.379L54.27 10l-2.216 6.324h4.432ZM68 22.973c-1.297 0-2.378-.162-3.243-.54-.865-.379-1.514-.811-1.892-1.298-.433-.486-.649-.973-.649-1.351 0-.162.054-.27.162-.379a.614.614 0 0 1 .433-.162h2.757c.108 0 .162.054.27.108.216.108.324.217.432.325.325.27.649.432.92.594.27.108.594.163.972.163.487 0 .865-.109 1.135-.27.325-.217.433-.433.433-.812 0-.27-.054-.486-.216-.648-.163-.162-.433-.325-.865-.433-.433-.162-1.081-.324-1.946-.486-1.352-.27-2.325-.703-3.081-1.297-.703-.65-1.027-1.46-1.027-2.487 0-.649.216-1.297.648-1.892.433-.594 1.027-1.08 1.838-1.46.81-.378 1.838-.54 2.919-.54 1.135 0 2.108.162 2.973.54.865.325 1.46.757 1.892 1.298.432.486.649.973.649 1.351a.49.49 0 0 1-.163.379.49.49 0 0 1-.378.162h-2.486c-.109 0-.27-.054-.379-.108a1.94 1.94 0 0 1-.54-.379 4.353 4.353 0 0 0-.757-.486c-.216-.108-.54-.162-.865-.162-.432 0-.757.108-1.027.27-.216.216-.378.432-.378.757 0 .216.054.432.216.594.162.162.432.325.865.487.432.162 1.08.27 1.946.432 1.567.27 2.648.757 3.351 1.46.703.702 1.081 1.513 1.081 2.432 0 1.19-.54 2.108-1.567 2.865-1.082.595-2.541.973-4.433.973ZM79.946 22.973c-1.297 0-2.378-.162-3.243-.54-.865-.379-1.514-.811-1.892-1.298-.433-.486-.649-.973-.649-1.351 0-.162.054-.27.162-.379a.614.614 0 0 1 .433-.162h2.757c.108 0 .162.054.27.108.216.108.324.217.432.325.325.27.649.432.92.594.27.108.594.163.972.163.487 0 .865-.109 1.135-.27.325-.217.433-.433.433-.812 0-.27-.054-.486-.216-.648-.163-.162-.433-.325-.865-.433-.433-.162-1.081-.324-1.946-.486-1.352-.27-2.325-.703-3.081-1.297-.703-.65-1.027-1.46-1.027-2.487 0-.649.216-1.297.648-1.892.433-.594 1.027-1.08 1.838-1.46.81-.378 1.838-.54 2.919-.54 1.135 0 2.108.162 2.973.54.865.325 1.46.757 1.892 1.298.432.486.648.973.648 1.351a.49.49 0 0 1-.162.379.49.49 0 0 1-.378.162h-2.486c-.109 0-.27-.054-.379-.108a1.94 1.94 0 0 1-.54-.379 4.353 4.353 0 0 0-.757-.486c-.216-.108-.54-.162-.865-.162-.432 0-.757.108-1.027.27-.216.216-.378.432-.378.757 0 .216.054.432.216.594.162.162.432.325.865.487.432.162 1.08.27 1.946.432 1.567.27 2.648.757 3.35 1.46.704.702 1.082 1.513 1.082 2.432 0 1.19-.54 2.108-1.568 2.865-1.08.595-2.54.973-4.432.973ZM92.487 22.973c-1.892 0-3.406-.54-4.541-1.568-1.081-1.027-1.676-2.54-1.73-4.54V16c.054-1.892.649-3.351 1.73-4.432 1.135-1.082 2.595-1.622 4.487-1.622 1.35 0 2.486.27 3.405.865a5.35 5.35 0 0 1 2.108 2.27c.487.973.703 2.054.703 3.297v.595a.614.614 0 0 1-.162.432.613.613 0 0 1-.433.163h-7.676v.162c.055.756.217 1.351.541 1.838.324.486.81.702 1.46.702.378 0 .702-.054.972-.216s.487-.378.703-.649l.324-.324c.109-.054.217-.054.433-.054h2.973a.49.49 0 0 1 .378.162c.108.054.162.216.162.325 0 .432-.216.919-.702 1.459-.487.54-1.135 1.027-2.054 1.405-.865.379-1.892.595-3.081.595Zm2-7.784c0-.81-.163-1.46-.541-1.892-.324-.486-.865-.702-1.46-.702-.648 0-1.135.216-1.459.702-.324.433-.54 1.081-.54 1.838v.054h4ZM100.216 22.703a.613.613 0 0 1-.432-.162.614.614 0 0 1-.162-.433V10.865c0-.162.054-.324.162-.433a.614.614 0 0 1 .432-.162h2.595c.162 0 .324.054.432.162.108.109.162.27.162.433v.81c.379-.486.865-.864 1.46-1.189a4.49 4.49 0 0 1 2.108-.486c1.73 0 2.973.703 3.622 2.054.378-.595.919-1.081 1.621-1.46.703-.378 1.406-.594 2.216-.594 1.298 0 2.379.432 3.19 1.351.81.865 1.243 2.217 1.243 3.946v6.811a.614.614 0 0 1-.162.433.615.615 0 0 1-.433.162h-2.756a.614.614 0 0 1-.433-.162.614.614 0 0 1-.162-.433V15.46c0-.81-.162-1.35-.487-1.73a1.788 1.788 0 0 0-1.297-.54c-.486 0-.919.162-1.243.54-.324.325-.487.92-.487 1.676v6.65a.614.614 0 0 1-.162.431.613.613 0 0 1-.432.163h-2.757a.613.613 0 0 1-.432-.163.614.614 0 0 1-.162-.432V15.46c0-.757-.163-1.352-.541-1.676-.324-.379-.757-.54-1.297-.54-.487 0-.919.161-1.298.54-.324.324-.486.919-.486 1.675v6.65a.614.614 0 0 1-.162.432.615.615 0 0 1-.433.162h-3.027ZM127.838 22.973c-1.622 0-2.811-.54-3.73-1.622v.757a.614.614 0 0 1-.162.433.613.613 0 0 1-.432.162h-2.703a.617.617 0 0 1-.433-.162.614.614 0 0 1-.162-.433V6.324c0-.162.054-.324.162-.432a.617.617 0 0 1 .433-.162h2.919c.162 0 .324.054.432.162.108.108.162.27.162.432v5.136c.919-.92 2.054-1.406 3.514-1.406 1.567 0 2.757.487 3.676 1.514.918 1.027 1.351 2.378 1.459 4.108v1.729c-.054 1.784-.541 3.19-1.459 4.163-.919.918-2.109 1.405-3.676 1.405Zm-1.297-3.243c.756 0 1.297-.216 1.621-.649.325-.432.541-1.081.595-1.838.054-.324.054-.54.054-.756 0-.163 0-.433-.054-.757-.054-.757-.216-1.406-.595-1.838-.324-.432-.865-.649-1.621-.649-.703 0-1.244.216-1.622.649-.378.432-.541.973-.595 1.622v1.783c.054.703.217 1.298.595 1.784.324.433.865.649 1.622.649ZM134.595 22.703a.614.614 0 0 1-.433-.162.614.614 0 0 1-.162-.433V6.324c0-.162.054-.324.162-.432a.614.614 0 0 1 .433-.162h2.81c.163 0 .325.054.433.162.108.108.162.27.162.432v15.784a.614.614 0 0 1-.162.433.614.614 0 0 1-.433.162h-2.81ZM141.838 27.243a.494.494 0 0 1-.379-.162.49.49 0 0 1-.162-.378c0-.108 0-.216.054-.325l1.892-4.486-4.594-10.865c-.054-.108-.054-.216-.054-.27a.871.871 0 0 1 .216-.379.49.49 0 0 1 .378-.162h2.757c.324 0 .541.162.703.487l2.756 6.973 2.811-6.973c.162-.325.379-.487.703-.487h2.703a.49.49 0 0 1 .378.162c.108.108.162.217.162.325 0 .054 0 .162-.054.324l-6.757 15.676c-.108.324-.378.486-.702.486h-2.811v.054ZM150.811 22.703a.587.587 0 0 1-.379-.162.49.49 0 0 1-.162-.379v-.216l5.622-15.351c.054-.217.162-.325.324-.487a1.16 1.16 0 0 1 .649-.216h3.567c.271 0 .487.054.649.216.162.162.27.27.324.487l5.622 15.351.054.216c0 .108-.054.27-.162.379a.49.49 0 0 1-.378.162h-2.973c-.379 0-.649-.162-.757-.487l-.919-2.432h-6.378l-.919 2.432c-.108.325-.379.487-.811.487h-2.973Zm10.108-6.379L158.703 10l-2.216 6.324h4.432ZM168.162 22.703a.613.613 0 0 1-.432-.162.614.614 0 0 1-.162-.433V6.541c0-.163.054-.325.162-.433a.613.613 0 0 1 .432-.162h3.189c.163 0 .325.054.433.162.108.108.216.27.216.433v15.567a.492.492 0 0 1-.216.433.614.614 0 0 1-.433.162h-3.189Z"/><path fill="url(#b)" d="M3.676 20.54.973 26.974C.216 28.757.054 30.811 2 31.568c.487.162.919.27 1.405.27 1.46 0 2.92-.865 3.46-2.216l.54-1.298 4.217-9.946 4.216-9.891c1.027-1.73 1.622-4.433 5.568-5.892-3.082-.433-9.244-1.244-9.298-1.244-.054.054-.432.703-.486.757a1.62 1.62 0 0 0-.216.433l-7.73 18c.054-.055 0-.055 0 0Z"/><path fill="url(#c)" d="m31.081 20.54 2.757 6.433c.757 1.784.919 3.838-1.027 4.595-.487.162-.919.27-1.405.27-1.46 0-2.92-.865-3.46-2.216l-.54-1.298-4.27-9.946-4.217-9.891c-1.027-1.73-2.703-5.406-7.19-6.541C12.325.595 14.27.378 15.785.378H20c.162 0 .324 0 .487.054.108 0 .162 0 .27.055.108 0 .216.054.324.108.108.054.27.054.378.108.055 0 .109.054.163.054.162.054.324.162.486.216.108.054.216.162.27.216.109.054.163.108.27.216l.217.217.27.27c.054.054.054.162.108.216.108.162.163.27.216.433l7.622 18c0-.055 0-.055 0 0Z"/></g><defs><radialGradient id="b" cx="0" cy="0" r="1" gradientTransform="rotate(163.002 53.071 9.908) scale(96.729 52.3714)" gradientUnits="userSpaceOnUse"><stop stop-color="#142167"/><stop offset="1" stop-color="#263DB5"/></radialGradient><radialGradient id="c" cx="0" cy="0" r="1" gradientTransform="matrix(-18.5563 20.31462 -71.07785 -64.92574 32.14 7.258)" gradientUnits="userSpaceOnUse"><stop stop-color="#4259D4"/><stop offset="1" stop-color="#6A81FC"/></radialGradient><clipPath id="a"><path fill="#fff" d="M.433 0H172v32H.433z"/></clipPath></defs></svg>
